X:36
T:Wistful Lover, The
R:polka
H:Also played with parts in reversed order.
H:See also #39 in A
Z:id:hn-polka-36
M:2/4
L:1/8
K:G
B2 B>A|Bd ed|B>A Bd|B/A/G A2|B>c BA|Bd ed|e>f ed|ef g2:|
|:GB/d/ ed|gd ed|GB/d/ ed|B/A/G A2|GB/d/ ed|gd ed|e>f ed|ef g2:|
P:version 2
|: G>A Bd | gd ed | G>A Bd | ed/B/ d2 |
G>A Bd | gd ed | ef/e/ dB |1 AG GD :|2 AG GA ||
|: B2 BA | Bd ed | B2 Bd | B/A/G A2 |
B2 BA | Bd ed | ef/e/ dB |1 AG GA :|2 AG GD ||
<end>
<start>
